X:1054
T:BALEU 1
Z:Yves Belotteau
Z: Yves Belotteau
M:4/4
L:1/8
Q:1/4=120
K:G 
|GABc BAG3/2 z/2 |dddc e3/2 z/2 d3/2 z/2 |GABc BAG3/2 z/2 |dddc e3/2 z/2
 d3/2 z/2 |
GABB BBB3/2 z/2 |GABB BBB3/2 z/2 |ABcB A3/2 z/2 G3/2 z/2 |GABB BBB3/2 z/
2 |
GABB BBB3/2 z/2 |ABcB A3/2 z/2 G3/2|
